X:625
T: Rujin shanqu dabutong
N: C2144
O: China, Hubei Zaoyang
S: I, 392]
R: Xiaodiao, Tiange, Hayangcaoge]
M: 2/4
L: 1/16
K: D
A2d2d2B2 | A2d2d2B2 | A6B2
d2d4BA | A2A2E2D2 | EAC4E2 | EAC6
E2EAE2E2 | A4D2E2 | A4d2F2 | D2E6
E4A4 | d4F2E2 | d4e2ed | e2A2d4

